dist/img/video-fb.svg

<svg width="51" height="51" viewBox="0 0 51 51" fill="none" xmlns="http://www.w3.org/2000/svg">
<rect width="51" height="51" fill="#E5E5E5"/>
<g clip-path="url(#clip0_199_738)">
<rect width="1600" height="5201" transform="translate(-660 -4715)" fill="white"/>
<g filter="url(#filter0_d_199_738)">
<circle cx="25.2778" cy="25.6298" r="25.2778" fill="#3D5A96"/>
<path fill-rule="evenodd" clip-rule="evenodd" d="M26.9877 36.0003H22.3902V26.2063H20.0925V22.4321H22.3902V20.168C22.3902 17.0913 23.6873 15.2595 27.3729 15.2595H30.441V19.0337H28.5241C27.0889 19.0337 26.9935 19.5605 26.9935 20.545L26.9877 22.4321H30.4629L30.0558 26.2063H26.9877V36.0003Z" fill="white"/>
</g>
</g>
<path d="M-1503.5 -363.5C-1506 -363.5 -1508 -361.5 -1508 -359C-1508 -356.5 -1506 -354.5 -1503.5 -354.5C-1501 -354.5 -1499 -356.5 -1499 -359C-1499 -361.5 -1501 -363.5 -1503.5 -363.5Z" fill="white"/>
<path d="M1098.06 693.061C1098.65 692.475 1098.65 691.525 1098.06 690.939L1088.51 681.393C1087.93 680.808 1086.98 680.808 1086.39 681.393C1085.81 681.979 1085.81 682.929 1086.39 683.515L1094.88 692L1086.39 700.485C1085.81 701.071 1085.81 702.021 1086.39 702.607C1086.98 703.192 1087.93 703.192 1088.51 702.607L1098.06 693.061ZM-1506.5 -359C-1506.5 -360.672 -1505.17 -362 -1503.5 -362V-365C-1506.83 -365 -1509.5 -362.328 -1509.5 -359H-1506.5ZM-1503.5 -362C-1501.83 -362 -1500.5 -360.672 -1500.5 -359H-1497.5C-1497.5 -362.328 -1500.17 -365 -1503.5 -365V-362ZM-1500.5 -359C-1500.5 -357.328 -1501.83 -356 -1503.5 -356V-353C-1500.17 -353 -1497.5 -355.672 -1497.5 -359H-1500.5ZM-1503.5 -356C-1505.17 -356 -1506.5 -357.328 -1506.5 -359H-1509.5C-1509.5 -355.672 -1506.83 -353 -1503.5 -353V-356ZM-1505 -354.5V672H-1502V-354.5H-1505ZM-1483.5 693.5H1097V690.5H-1483.5V693.5ZM-1505 672C-1505 683.874 -1495.37 693.5 -1483.5 693.5V690.5C-1493.72 690.5 -1502 682.217 -1502 672H-1505Z" fill="black"/>
<defs>
<filter id="filter0_d_199_738" x="-15.5556" y="-7.42573" width="81.6668" height="81.6668" filterUnits="userSpaceOnUse" color-interpolation-filters="sRGB">
<feFlood flood-opacity="0" result="BackgroundImageFix"/>
<feColorMatrix in="SourceAlpha" type="matrix" values="0 0 0 0 0 0 0 0 0 0 0 0 0 0 0 0 0 0 127 0" result="hardAlpha"/>
<feOffset dy="7.77778"/>
<feGaussianBlur stdDeviation="7.77778"/>
<feColorMatrix type="matrix" values="0 0 0 0 0 0 0 0 0 0 0 0 0 0 0 0 0 0 0.1 0"/>
<feBlend mode="normal" in2="BackgroundImageFix" result="effect1_dropShadow_199_738"/>
<feBlend mode="normal" in="SourceGraphic" in2="effect1_dropShadow_199_738" result="shape"/>
</filter>
<clipPath id="clip0_199_738">
<rect width="1600" height="5201" fill="white" transform="translate(-660 -4715)"/>
</clipPath>
</defs>
</svg>

<svg width="51" height="51" fill="none" xmlns="http://www.w3.org/2000/svg"><path fill="#E5E5E5" d="M0 0h51v51H0z"/><g clip-path="url(#a)"><path fill="#fff" d="M-660-4715H940V486H-660z"/><g filter="url(#b)"><circle cx="25.278" cy="25.63" r="25.278" fill="#3D5A96"/><path fill-rule="evenodd" clip-rule="evenodd" d="M26.988 36H22.39v-9.794h-2.297v-3.774h2.297v-2.264c0-3.077 1.297-4.909 4.983-4.909h3.068v3.775h-1.917c-1.435 0-1.53.527-1.53 1.511l-.006 1.887h3.475l-.407 3.774h-3.068V36Z" fill="#fff"/></g></g><path d="M-1503.5-363.5c-2.5 0-4.5 2-4.5 4.5s2 4.5 4.5 4.5 4.5-2 4.5-4.5-2-4.5-4.5-4.5Z" fill="#fff"/><path d="M1098.06 693.061c.59-.586.59-1.536 0-2.122l-9.55-9.546a1.5 1.5 0 0 0-2.12 0 1.511 1.511 0 0 0 0 2.122l8.49 8.485-8.49 8.485a1.511 1.511 0 0 0 0 2.122 1.5 1.5 0 0 0 2.12 0l9.55-9.546ZM-1506.5-359c0-1.672 1.33-3 3-3v-3c-3.33 0-6 2.672-6 6h3Zm3-3c1.67 0 3 1.328 3 3h3c0-3.328-2.67-6-6-6v3Zm3 3c0 1.672-1.33 3-3 3v3c3.33 0 6-2.672 6-6h-3Zm-3 3c-1.67 0-3-1.328-3-3h-3c0 3.328 2.67 6 6 6v-3Zm-1.5 1.5V672h3V-354.5h-3Zm21.5 1048H1097v-3h-2580.5v3ZM-1505 672c0 11.874 9.63 21.5 21.5 21.5v-3c-10.22 0-18.5-8.283-18.5-18.5h-3Z" fill="#000"/><defs><clipPath id="a"><path fill="#fff" transform="translate(-660 -4715)" d="M0 0h1600v5201H0z"/></clipPath><filter id="b" x="-15.556" y="-7.426" width="81.667" height="81.667" filterUnits="userSpaceOnUse" color-interpolation-filters="sRGB"><feFlood flood-opacity="0" result="BackgroundImageFix"/><feColorMatrix in="SourceAlpha" values="0 0 0 0 0 0 0 0 0 0 0 0 0 0 0 0 0 0 127 0" result="hardAlpha"/><feOffset dy="7.778"/><feGaussianBlur stdDeviation="7.778"/><feColorMatrix values="0 0 0 0 0 0 0 0 0 0 0 0 0 0 0 0 0 0 0.1 0"/><feBlend in2="BackgroundImageFix" result="effect1_dropShadow_199_738"/><feBlend in="SourceGraphic" in2="effect1_dropShadow_199_738" result="shape"/></filter></defs></svg>
